modules/themify-icons/icons/ink-pen.svg

<?xml version="1.0" encoding="utf-8"?>
<!-- Generated by IcoMoon.io -->
<!DOCTYPE svg PUBLIC "-//W3C//DTD SVG 1.1//EN" "http://www.w3.org/Graphics/SVG/1.1/DTD/svg11.dtd">
<svg version="1.1" xmlns="http://www.w3.org/2000/svg" xmlns:xlink="http://www.w3.org/1999/xlink" width="17" height="17" viewBox="0 0 17 17">
<g>
</g>
	<path d="M3 0v6.499l5.466 9.499 5.534-9.498v-6.5h-11zM8.471 14h0.002l-0.001 0.002-0.001-0.002zM8.5 6c-0.552 0-1-0.449-1-1s0.448-1 1-1 1 0.449 1 1-0.448 1-1 1zM13 6.23l-4 6.866v-6.167c0.86-0.223 1.5-1 1.5-1.929 0-1.103-0.897-2-2-2s-2 0.897-2 2c0 0.929 0.64 1.706 1.5 1.929v6.254l-4-6.952v-5.231h9v5.23z" fill="#000000" />
</svg>

<svg xmlns="http://www.w3.org/2000/svg" width="17" height="17"><path d="M3 0v6.499l5.466 9.499L14 6.5V0H3zm5.471 14h.002l-.001.002L8.471 14zM8.5 6a1.001 1.001 0 0 1 0-2 1.001 1.001 0 0 1 0 2zm4.5.23l-4 6.866V6.929c.86-.223 1.5-1 1.5-1.929 0-1.103-.897-2-2-2s-2 .897-2 2c0 .929.64 1.706 1.5 1.929v6.254L4 6.231V1h9v5.23z"/></svg>
